X: 784
T: The Humors of Whiskey.
C:Tobin.
B:O'Neill's Music of Ireland
N:O'Neill's - 784
Z:Transcribed by Stephen Foy (shf@access.digex.net)
Z:abc 1.6
M:6/8
R:Jig
K:D
A|dfd ecA|dcB AGF|GBB FAA|GFG E2 A|\
dcd ecA|dcB AFA|Bcd efg|fdd d2:|
||B|AFA dcd|BGB ede|AFA dAF|GFG EFG|\
AFA dcd|BGB ede|faf ede|fdd d2:|


